svg/furkot/icomoon/google-plus-2.svg

<svg viewBox="0 0 512 512" xmlns="http://www.w3.org/2000/svg"><path d="m279.536 32s-100.48 0-133.968 0c-60.064 0-116.584 45.504-116.584 98.208 0 53.864 40.944 97.336 102.04 97.336 4.248 0 8.376-.088 12.424-.376-3.968 7.592-6.8 16.144-6.8 25.024 0 14.968 8.048 27.104 18.232 37.016-7.696 0-15.12.224-23.224.224-74.392 0-131.648 47.376-131.648 96.512 0 48.392 62.768 78.656 137.168 78.656 84.816 0 131.656-48.12 131.656-96.512 0-38.8-11.448-62.04-46.84-87.064-12.112-8.576-35.264-29.416-35.264-41.672 0-14.36 4.096-21.432 25.712-38.32 22.16-17.312 37.84-41.648 37.84-69.96 0-33.704-15.008-66.552-43.184-77.384h42.48l29.984-21.672zm-46.792 327.728c1.064 4.488 1.64 9.104 1.64 13.816 0 39.104-25.192 69.656-97.488 69.656-51.424 0-88.56-32.552-88.56-71.648 0-38.32 46.064-70.224 97.48-69.664 12 .128 23.184 2.056 33.336 5.344 27.912 19.416 47.936 30.384 53.584 52.504zm-82.336-145.84c-34.52-1.032-67.32-38.616-73.272-83.928-5.96-45.336 17.184-80.024 51.696-78.992 34.504 1.04 67.32 37.408 73.28 82.728s-17.192 81.232-51.696 80.192zm265.592-85.888v-96h-32v96h-96v32h96v96h32v-96h96v-32z"/></svg>

<svg xmlns="http://www.w3.org/2000/svg" viewBox="0 0 512 512"><path d="M279.536 32C279.536 32 179.056 32 145.568 32 85.504 32 28.984 77.504 28.984 130.208 28.984 184.072 69.928 227.544 131.024 227.544 135.272 227.544 139.4 227.456 143.448 227.168 139.48 234.76 136.648 243.312 136.648 252.192 136.648 267.16 144.696 279.296 154.88 289.208 147.184 289.208 139.76 289.432 131.656 289.432 57.264 289.432 0.008 336.808 0.008 385.944 0.008 434.336 62.776 464.6 137.176 464.6 221.992 464.6 268.832 416.48 268.832 368.088 268.832 329.288 257.384 306.048 221.992 281.024 209.88 272.448 186.728 251.608 186.728 239.352 186.728 224.992 190.824 217.92 212.44 201.032 234.6 183.72 250.28 159.384 250.28 131.072 250.28 97.368 235.272 64.52 207.096 53.688H249.576L279.56 32.016ZM232.744 359.728C233.808 364.216 234.384 368.832 234.384 373.544 234.384 412.648 209.192 443.2 136.896 443.2 85.472 443.2 48.336 410.648 48.336 371.552 48.336 333.232 94.4 301.328 145.816 301.888 157.816 302.016 169 303.944 179.152 307.232 207.064 326.648 227.088 337.616 232.736 359.736ZM150.408 213.888C115.888 212.856 83.088 175.272 77.136 129.96 71.176 84.624 94.32 49.936 128.832 50.968 163.336 52.008 196.152 88.376 202.112 133.696S184.92 214.928 150.416 213.888ZM416 128V32H384V128H288V160H384V256H416V160H512V128Z"/></svg>
